; generated by PrusaSlicer 2.3.0+linux-x64 on 2021-09-16 at 10:58:29 UTC

; 

; external perimeters extrusion width = 0.45mm
; perimeters extrusion width = 0.45mm
; infill extrusion width = 0.45mm
; solid infill extrusion width = 0.45mm
; top infill extrusion width = 0.40mm
; first layer extrusion width = 0.42mm

M201 X800 Y800 Z100 E7000 ; sets maximum accelerations, mm/sec^2
M203 X500 Y500 Z12 E120 ; sets maximum feedrates, mm/sec
M204 P1500 R1500 T1500 ; sets acceleration (P, T) and retract acceleration (R), mm/sec^2
M205 X10.00 Y10.00 Z0.20 E2.50 ; sets the jerk limits, mm/sec
M205 S0 T0 ; sets the minimum extruding and travel feed rate, mm/sec
M107
M190 S55 ; set bed temperature and wait for it to be reached
M104 S210 ; set temperature
;TYPE:Custom
G28 ; home all axes
G1 Z5 F5000 ; lift nozzle
M109 S210 ; set temperature and wait for it to be reached
G21 ; set units to millimeters
G90 ; use absolute coordinates
M82 ; use absolute distances for extrusion
G92 E0
; Filament gcode
;LAYER_CHANGE
;Z:0.2
;HEIGHT:0.2
G1 Z0.200 F5400.000
G1 E-2.00000 F2400.000
G92 E0
G1 X73.528 Y75.056 F5400.000
G1 E2.00000 F2400.000
;TYPE:Skirt
;WIDTH:0.42
G1 F1800.000
G1 X76.812 Y71.972 E2.14126
G1 X80.041 Y69.598 E2.26690
G1 X84.429 Y67.133 E2.42472
G1 X88.136 Y65.612 E2.55035
G1 X92.289 Y64.450 E2.68557
G1 X96.538 Y63.789 E2.82039
G1 X100.723 Y63.632 E2.95170
G1 X105.545 Y64.057 E3.10349
G1 X109.443 Y64.871 E3.22834
G1 X113.540 Y66.237 E3.36375
G1 X117.413 Y68.062 E3.49799
G1 X120.816 Y70.177 E3.62363
G1 X124.734 Y73.338 E3.78145
G1 X127.507 Y76.196 E3.90630
G1 X130.123 Y79.608 E4.04113
G1 X132.319 Y83.305 E4.17595
G1 X133.950 Y86.959 E4.30139
G1 X135.421 Y91.753 E4.45863
G1 X136.121 Y95.698 E4.58427
G1 X136.377 Y99.990 E4.71909
G1 X136.123 Y104.292 E4.85420
G1 X135.425 Y108.233 E4.97970
G1 X133.953 Y113.034 E5.13713
G1 X132.324 Y116.688 E5.26257
G1 X130.129 Y120.385 E5.39740
G1 X127.512 Y123.798 E5.53223
G1 X124.740 Y126.657 E5.65708
G1 X120.829 Y129.815 E5.81471
G1 X117.426 Y131.931 E5.94035
G1 X113.548 Y133.760 E6.07478
G1 X109.458 Y135.126 E6.21000
G1 X105.553 Y135.942 E6.33505
G1 X100.725 Y136.368 E6.48704
G1 X96.571 Y136.215 E6.61737
G1 X92.647 Y135.617 E6.74184
G1 X88.097 Y134.374 E6.88972
G1 X84.146 Y132.741 E7.02377
G1 X80.667 Y130.804 E7.14862
G1 X76.771 Y127.993 E7.29924
G1 X73.702 Y125.134 E7.43075
G1 X71.119 Y122.104 E7.55561
G1 X68.452 Y118.109 E7.70622
G1 X66.576 Y114.357 E7.83773
G1 X65.178 Y110.509 E7.96611
G1 X64.172 Y106.275 E8.10254
G1 X64.041 Y104.988 E8.14312
G1 X64.058 Y94.552 E8.47034
G1 X64.189 Y93.645 E8.49907
G1 X65.141 Y89.605 E8.62920
G1 X66.571 Y85.656 E8.76087
G1 X68.503 Y81.801 E8.89609
G1 X70.878 Y78.202 E9.03130
G1 X73.489 Y75.101 E9.15839
G1 E7.15839 F2400.000
G92 E0
G1 X66.991 Y98.276 F5400.000
G1 E2.00000 F2400.000
G1 F1800.000
G1 X66.106 Y97.021 E2.04813
G1 X65.811 Y96.202 E2.07542
G1 X65.660 Y95.139 E2.10910
G1 X65.724 Y94.385 E2.13281
G1 X66.745 Y90.046 E2.27258
G1 X68.097 Y86.317 E2.39696
G1 X69.878 Y82.747 E2.52203
G1 X72.316 Y79.057 E2.66073
G1 X74.903 Y76.018 E2.78584
G1 X77.803 Y73.311 E2.91023
G1 X81.379 Y70.704 E3.04900
G1 X84.907 Y68.740 E3.17560
G1 X88.656 Y67.193 E3.30276
G1 X92.560 Y66.093 E3.42992
G1 X96.546 Y65.460 E3.55649
G1 X100.991 Y65.301 E3.69592
G1 X104.944 Y65.641 E3.82034
G1 X108.832 Y66.430 E3.94474
G1 X113.053 Y67.834 E4.08420
G1 X116.699 Y69.567 E4.21079
G1 X120.134 Y71.723 E4.33794
G1 X123.295 Y74.264 E4.46510
G1 X126.125 Y77.144 E4.59170
G1 X128.835 Y80.673 E4.73121
G1 X130.884 Y84.151 E4.85777
G1 X132.521 Y87.861 E4.98492
G1 X133.715 Y91.737 E5.11209
G1 X134.446 Y95.709 E5.23872
G1 X134.713 Y100.149 E5.37819
G1 X134.467 Y104.131 E5.50328
G1 X133.770 Y108.037 E5.62768
G1 X132.464 Y112.289 E5.76714
G1 X130.818 Y115.976 E5.89374
G1 X128.745 Y119.461 E6.02091
G1 X126.279 Y122.681 E6.14807
G1 X123.468 Y125.579 E6.27465
G1 X120.003 Y128.370 E6.41415
G1 X116.574 Y130.501 E6.54072
G1 X112.924 Y132.218 E6.66719
G1 X109.078 Y133.505 E6.79437
G1 X105.105 Y134.336 E6.92164
G1 X100.694 Y134.706 E7.06042
G1 X96.730 Y134.559 E7.18481
G1 X92.786 Y133.955 E7.30991
G1 X88.525 Y132.762 E7.44862
G1 X84.862 Y131.239 E7.57301
G1 X81.378 Y129.295 E7.69812
G1 X77.803 Y126.689 E7.83683
G1 X74.903 Y123.982 E7.96122
G1 X72.316 Y120.943 E8.08633
G1 X69.878 Y117.253 E8.22503
G1 X68.097 Y113.683 E8.35010
G1 X66.744 Y109.954 E8.47449
G1 X65.714 Y105.572 E8.61563
G1 X65.680 Y104.533 E8.64821
G1 X65.833 Y103.698 E8.67482
G1 X66.117 Y102.948 E8.69999
G1 X67.143 Y101.560 E8.75410
G1 X67.843 Y100.984 E8.78253
G1 X68.605 Y100.581 E8.80955
G1 X69.691 Y100.301 E8.84471
G1 X91.693 Y100.277 E9.53457
G1 X93.130 Y100.619 E9.58088
G1 X93.867 Y101.004 E9.60694
G1 X94.522 Y101.495 E9.63261
G1 X96.041 Y103.471 E9.71077
G1 X96.838 Y104.207 E9.74479
G1 X97.744 Y104.755 E9.77797
G1 X98.740 Y105.110 E9.81114
G1 X99.788 Y105.258 E9.84432
G1 X100.844 Y105.194 E9.87749
G1 X101.866 Y104.921 E9.91066
G1 X102.813 Y104.448 E9.94384
G1 X103.645 Y103.795 E9.97701
G1 X104.331 Y102.990 E10.01018
G1 X104.841 Y102.063 E10.04336
G1 X105.156 Y101.053 E10.07653
G1 X105.263 Y100.000 E10.10970
G1 X105.156 Y98.947 E10.14288
G1 X104.841 Y97.937 E10.17605
G1 X104.331 Y97.010 E10.20923
G1 X103.645 Y96.205 E10.24240
G1 X102.813 Y95.552 E10.27557
G1 X101.866 Y95.079 E10.30874
G1 X100.844 Y94.806 E10.34192
G1 X99.788 Y94.742 E10.37509
G1 X98.740 Y94.890 E10.40827
G1 X97.744 Y95.245 E10.44144
G1 X96.838 Y95.793 E10.47461
G1 X96.042 Y96.528 E10.50859
G1 X94.602 Y98.424 E10.58326
G1 X93.900 Y98.973 E10.61119
G1 X93.067 Y99.401 E10.64056
G1 X91.849 Y99.703 E10.67989
G1 X69.890 Y99.717 E11.36842
G1 X68.970 Y99.541 E11.39777
G1 X68.108 Y99.175 E11.42715
G1 X67.037 Y98.313 E11.47024
G1 X67.282 Y98.036 F5400.000
G1 F1800.000
G1 X66.451 Y96.867 E11.51520
G1 X66.181 Y96.128 E11.53988
G1 X66.037 Y95.148 E11.57094
G1 X66.094 Y94.458 E11.59265
G1 X67.103 Y90.164 E11.73093
G1 X68.448 Y86.456 E11.85463
G1 X70.210 Y82.926 E11.97832
G1 X72.611 Y79.292 E12.11488
G1 X75.168 Y76.286 E12.23861
G1 X78.052 Y73.594 E12.36231
G1 X81.572 Y71.028 E12.49892
G1 X85.081 Y69.075 E12.62481
G1 X88.789 Y67.546 E12.75059
G1 X92.651 Y66.459 E12.87637
G1 X96.594 Y65.834 E13.00155
G1 X100.970 Y65.677 E13.13883
G1 X104.880 Y66.012 E13.26187
G1 X108.746 Y66.797 E13.38558
G1 X112.901 Y68.180 E13.52288
G1 X116.527 Y69.903 E13.64875
G1 X119.925 Y72.036 E13.77453
G1 X123.050 Y74.551 E13.90030
G1 X125.848 Y77.400 E14.02551
G1 X128.516 Y80.874 E14.16286
G1 X130.543 Y84.313 E14.28803
G1 X132.164 Y87.982 E14.41380
G1 X133.346 Y91.816 E14.53958
G1 X134.073 Y95.766 E14.66551
G1 X134.336 Y100.137 E14.80282
G1 X134.093 Y104.075 E14.92653
G1 X133.401 Y107.960 E15.05024
G1 X132.115 Y112.146 E15.18754
G1 X130.489 Y115.793 E15.31275
G1 X128.439 Y119.241 E15.43853
G1 X126.000 Y122.427 E15.56431
G1 X123.205 Y125.308 E15.69018
G1 X119.794 Y128.055 E15.82752
G1 X116.404 Y130.164 E15.95270
G1 X112.794 Y131.863 E16.07779
G1 X108.969 Y133.144 E16.20427
G1 X105.039 Y133.964 E16.33015
G1 X100.697 Y134.329 E16.46677
G1 X96.755 Y134.182 E16.59046
G1 X92.854 Y133.584 E16.71419
G1 X88.660 Y132.410 E16.85076
G1 X85.017 Y130.895 E16.97445
G1 X81.571 Y128.972 E17.09818
G1 X78.052 Y126.406 E17.23475
G1 X75.168 Y123.714 E17.35844
G1 X72.611 Y120.708 E17.48218
G1 X70.210 Y117.074 E17.61874
G1 X68.448 Y113.544 E17.74243
G1 X67.103 Y109.836 E17.86613
G1 X66.086 Y105.504 E18.00562
G1 X66.058 Y104.543 E18.03577
G1 X66.201 Y103.786 E18.05995
G1 X66.460 Y103.107 E18.08272
G1 X67.431 Y101.805 E18.13365
G1 X68.066 Y101.289 E18.15931
G1 X68.760 Y100.926 E18.18386
G1 X69.761 Y100.672 E18.21624
G1 X91.671 Y100.654 E18.90321
G1 X93.018 Y100.980 E18.94667
G1 X93.655 Y101.316 E18.96925
G1 X94.239 Y101.746 E18.99201
G1 X95.761 Y103.727 E19.07032
G1 X96.611 Y104.510 E19.10656
G1 X97.581 Y105.097 E19.14212
G1 X98.650 Y105.478 E19.17768
G1 X99.773 Y105.637 E19.21324
G1 X100.905 Y105.569 E19.24881
G1 X102.000 Y105.275 E19.28437
G1 X103.015 Y104.768 E19.31993
G1 X103.908 Y104.069 E19.35549
G1 X104.643 Y103.205 E19.39106
G1 X105.190 Y102.211 E19.42662
G1 X105.527 Y101.129 E19.46218
G1 X105.642 Y100.000 E19.49774
G1 X105.527 Y98.871 E19.53331
G1 X105.190 Y97.789 E19.56887
G1 X104.643 Y96.795 E19.60443
G1 X103.908 Y95.931 E19.63999
G1 X103.015 Y95.232 E19.67556
G1 X102.000 Y94.725 E19.71112
G1 X100.905 Y94.431 E19.74668
G1 X99.773 Y94.363 E19.78224
G1 X98.650 Y94.522 E19.81781
G1 X97.581 Y94.903 E19.85337
G1 X96.611 Y95.490 E19.88893
G1 X95.762 Y96.273 E19.92515
G1 X94.317 Y98.176 E20.00006
G1 X93.684 Y98.664 E20.02512
G1 X92.953 Y99.041 E20.05091
G1 X91.825 Y99.326 E20.08738
G1 X69.908 Y99.340 E20.77458
G1 X69.063 Y99.175 E20.80158
G1 X68.281 Y98.839 E20.82827
G1 X67.329 Y98.073 E20.86657
G1 X67.573 Y97.794 F5400.000
G1 F1800.000
G1 X66.795 Y96.711 E20.90838
G1 X66.550 Y96.051 E20.93046
G1 X66.415 Y95.155 E20.95887
G1 X66.465 Y94.530 E20.97855
G1 X67.461 Y90.282 E21.11534
G1 X68.790 Y86.614 E21.23767
G1 X70.542 Y83.104 E21.36066
G1 X72.906 Y79.528 E21.49507
G1 X75.448 Y76.539 E21.61811
G1 X78.301 Y73.878 E21.74043
G1 X81.766 Y71.351 E21.87489
G1 X85.235 Y69.419 E21.99939
G1 X88.902 Y67.905 E22.12379
G1 X92.721 Y66.830 E22.24818
G1 X96.642 Y66.208 E22.37265
G1 X100.949 Y66.054 E22.50778
G1 X104.837 Y66.387 E22.63012
G1 X108.660 Y67.165 E22.75245
G1 X112.750 Y68.525 E22.88761
G1 X116.336 Y70.229 E23.01209
G1 X119.697 Y72.337 E23.13648
G1 X122.789 Y74.823 E23.26087
G1 X125.571 Y77.656 E23.38537
G1 X128.197 Y81.075 E23.52056
G1 X130.213 Y84.495 E23.64502
G1 X131.815 Y88.124 E23.76941
G1 X132.983 Y91.916 E23.89381
G1 X133.700 Y95.823 E24.01834
G1 X133.959 Y100.126 E24.15350
G1 X133.718 Y104.041 E24.27651
G1 X133.032 Y107.882 E24.39883
G1 X131.766 Y112.002 E24.53399
G1 X130.149 Y115.629 E24.65849
G1 X128.120 Y119.039 E24.78289
G1 X125.708 Y122.188 E24.90729
G1 X122.943 Y125.037 E25.03176
G1 X119.585 Y127.741 E25.16694
G1 X116.214 Y129.838 E25.29142
G1 X112.644 Y131.518 E25.41512
G1 X108.860 Y132.783 E25.54022
G1 X104.973 Y133.593 E25.66470
G1 X100.699 Y133.952 E25.79918
G1 X96.779 Y133.806 E25.92217
G1 X92.923 Y133.213 E26.04451
G1 X88.794 Y132.057 E26.17895
G1 X85.172 Y130.551 E26.30194
G1 X81.765 Y128.648 E26.42429
G1 X78.301 Y126.122 E26.55872
G1 X75.448 Y123.461 E26.68104
G1 X72.906 Y120.472 E26.80407
G1 X70.542 Y116.896 E26.93849
G1 X68.790 Y113.386 E27.06148
G1 X67.461 Y109.718 E27.18381
G1 X66.458 Y105.438 E27.32165
G1 X66.435 Y104.555 E27.34932
G1 X66.567 Y103.875 E27.37106
G1 X66.802 Y103.268 E27.39145
G1 X67.718 Y102.051 E27.43920
G1 X68.286 Y101.595 E27.46206
G1 X68.912 Y101.271 E27.48417
G1 X69.829 Y101.044 E27.51377
G1 X91.649 Y101.031 E28.19791
G1 X92.863 Y101.324 E28.23708
G1 X93.466 Y101.642 E28.25846
G1 X93.993 Y102.033 E28.27904
G1 X95.481 Y103.981 E28.35591
G1 X96.383 Y104.813 E28.39437
G1 X97.419 Y105.439 E28.43232
G1 X98.559 Y105.846 E28.47027
G1 X99.757 Y106.016 E28.50822
G1 X100.966 Y105.943 E28.54617
G1 X102.135 Y105.629 E28.58413
G1 X103.218 Y105.089 E28.62208
G1 X104.171 Y104.342 E28.66003
G1 X104.955 Y103.420 E28.69798
G1 X105.539 Y102.360 E28.73593
G1 X105.899 Y101.204 E28.77388
G1 X106.021 Y100.000 E28.81184
G1 X105.899 Y98.796 E28.84979
G1 X105.539 Y97.640 E28.88774
G1 X104.955 Y96.580 E28.92569
G1 X104.171 Y95.658 E28.96364
G1 X103.218 Y94.911 E29.00159
G1 X102.135 Y94.371 E29.03955
G1 X100.966 Y94.057 E29.07750
G1 X99.757 Y93.984 E29.11545
G1 X98.559 Y94.154 E29.15340
G1 X97.419 Y94.561 E29.19135
G1 X96.383 Y95.187 E29.22930
G1 X95.482 Y96.018 E29.26776
G1 X94.033 Y97.927 E29.34288
G1 X93.469 Y98.353 E29.36504
G1 X92.837 Y98.682 E29.38737
G1 X91.801 Y98.949 E29.42093
G1 X69.927 Y98.963 E30.10678
G1 X69.157 Y98.809 E30.13138
G1 X68.455 Y98.503 E30.15541
G1 X67.620 Y97.832 E30.18899
G1 X67.864 Y97.552 F5400.000
G1 F1800.000
G1 X67.139 Y96.554 E30.22767
G1 X66.920 Y95.973 E30.24715
G1 X66.792 Y95.162 E30.27289
G1 X66.835 Y94.601 E30.29051
G1 X67.819 Y90.400 E30.42579
G1 X69.141 Y86.753 E30.54743
G1 X70.874 Y83.283 E30.66904
G1 X73.200 Y79.763 E30.80132
G1 X75.713 Y76.807 E30.92298
G1 X78.550 Y74.161 E31.04460
G1 X81.960 Y71.675 E31.17691
G1 X85.409 Y69.754 E31.30070
G1 X89.036 Y68.258 E31.42372
G1 X92.813 Y67.196 E31.54673
G1 X96.690 Y66.583 E31.66980
G1 X100.928 Y66.431 E31.80279
G1 X104.772 Y66.759 E31.92375
G1 X108.574 Y67.532 E32.04538
G1 X112.599 Y68.871 E32.17839
G1 X116.145 Y70.554 E32.30147
G1 X119.487 Y72.650 E32.42516
G1 X122.544 Y75.110 E32.54817
G1 X125.294 Y77.912 E32.67128
G1 X127.878 Y81.277 E32.80432
G1 X129.872 Y84.658 E32.92738
G1 X131.458 Y88.246 E33.05038
G1 X132.619 Y92.017 E33.17409
G1 X133.327 Y95.879 E33.29721
G1 X133.582 Y100.114 E33.43023
G1 X133.345 Y103.986 E33.55186
G1 X132.663 Y107.804 E33.67348
G1 X131.417 Y111.859 E33.80649
G1 X129.819 Y115.446 E33.92959
G1 X127.814 Y118.818 E34.05261
G1 X125.415 Y121.950 E34.17631
G1 X122.680 Y124.766 E34.29939
G1 X119.376 Y127.427 E34.43241
G1 X116.043 Y129.502 E34.55549
G1 X112.493 Y131.172 E34.67850
G1 X108.751 Y132.422 E34.80222
G1 X104.908 Y133.221 E34.92530
G1 X100.702 Y133.575 E35.05763
G1 X96.826 Y133.432 E35.17924
G1 X92.991 Y132.842 E35.30089
G1 X88.928 Y131.704 E35.43319
G1 X85.346 Y130.216 E35.55480
G1 X81.959 Y128.324 E35.67645
G1 X78.550 Y125.839 E35.80874
G1 X75.713 Y123.193 E35.93036
G1 X73.200 Y120.237 E36.05202
G1 X70.874 Y116.717 E36.18429
G1 X69.141 Y113.247 E36.30590
G1 X67.819 Y109.600 E36.42755
G1 X66.829 Y105.371 E36.56371
G1 X66.813 Y104.569 E36.58887
G1 X66.933 Y103.966 E36.60815
G1 X67.143 Y103.430 E36.62620
G1 X67.973 Y102.329 E36.66942
G1 X68.477 Y101.921 E36.68975
G1 X69.065 Y101.617 E36.71052
G1 X69.895 Y101.416 E36.73730
G1 X91.626 Y101.408 E37.41866
G1 X92.709 Y101.669 E37.45357
G1 X93.254 Y101.954 E37.47285
G1 X93.747 Y102.320 E37.49211
G1 X95.201 Y104.236 E37.56752
G1 X96.155 Y105.116 E37.60823
G1 X97.256 Y105.782 E37.64857
G1 X98.468 Y106.214 E37.68891
G1 X99.742 Y106.394 E37.72925
G1 X101.026 Y106.317 E37.76959
G1 X102.269 Y105.984 E37.80993
G1 X103.420 Y105.409 E37.85027
G1 X104.433 Y104.615 E37.89062
G1 X105.267 Y103.635 E37.93096
G1 X105.887 Y102.508 E37.97130
G1 X106.270 Y101.280 E38.01164
G1 X106.400 Y100.000 E38.05198
G1 X106.270 Y98.720 E38.09232
G1 X105.887 Y97.492 E38.13266
G1 X105.267 Y96.365 E38.17300
G1 X104.433 Y95.385 E38.21334
G1 X103.420 Y94.591 E38.25368
G1 X102.269 Y94.016 E38.29402
G1 X101.026 Y93.683 E38.33436
G1 X99.742 Y93.606 E38.37470
G1 X98.468 Y93.786 E38.41504
G1 X97.256 Y94.218 E38.45539
G1 X96.155 Y94.884 E38.49573
G1 X95.201 Y95.764 E38.53642
G1 X93.749 Y97.677 E38.61172
G1 X93.257 Y98.041 E38.63093
G1 X92.720 Y98.323 E38.64994
G1 X91.776 Y98.572 E38.68055
G1 X69.946 Y98.585 E39.36501
G1 X69.253 Y98.444 E39.38718
G1 X68.630 Y98.169 E39.40854
G1 X67.910 Y97.590 E39.43750
G1 X68.153 Y97.309 F5400.000
G1 F1800.000
G1 X67.481 Y96.394 E39.47308
G1 X67.288 Y95.892 E39.48996
G1 X67.170 Y95.166 E39.51301
G1 X67.206 Y94.672 E39.52853
G1 X68.178 Y90.518 E39.66230
G1 X69.483 Y86.912 E39.78256
G1 X71.207 Y83.462 E39.90348
G1 X73.495 Y79.999 E40.03361
G1 X75.994 Y77.060 E40.15457
G1 X78.798 Y74.445 E40.27481
G1 X82.153 Y71.999 E40.40498
G1 X85.563 Y70.098 E40.52738
G1 X89.149 Y68.618 E40.64901
G1 X92.904 Y67.562 E40.77132
G1 X96.737 Y66.957 E40.89300
G1 X100.908 Y66.807 E41.02384
G1 X104.729 Y67.134 E41.14410
G1 X108.487 Y67.899 E41.26435
G1 X112.448 Y69.217 E41.39522
G1 X115.954 Y70.879 E41.51690
G1 X119.260 Y72.951 E41.63921
G1 X122.282 Y75.382 E41.76083
G1 X125.017 Y78.168 E41.88323
G1 X127.559 Y81.479 E42.01412
G1 X129.532 Y84.820 E42.13578
G1 X131.108 Y88.388 E42.25809
G1 X132.256 Y92.117 E42.38040
G1 X132.954 Y95.936 E42.50213
G1 X133.205 Y100.102 E42.63301
G1 X132.969 Y103.952 E42.75393
G1 X132.293 Y107.727 E42.87417
G1 X131.068 Y111.716 E43.00504
G1 X129.489 Y115.263 E43.12674
G1 X127.496 Y118.616 E43.24906
G1 X125.123 Y121.712 E43.37138
G1 X122.418 Y124.495 E43.49305
G1 X119.167 Y127.113 E43.62393
G1 X115.873 Y129.165 E43.74562
G1 X112.343 Y130.826 E43.86793
G1 X108.642 Y132.061 E43.99025
G1 X104.842 Y132.850 E44.11194
G1 X100.704 Y133.198 E44.24213
G1 X96.851 Y133.055 E44.36304
G1 X93.060 Y132.472 E44.48331
G1 X89.062 Y131.352 E44.61347
